Resources/Icons/piano.svg

<svg version="1.1" xmlns="http://www.w3.org/2000/svg" width="20" height="20" viewBox="0 0 20 20">
<path d="M0 17.5v-14.375h19.375v14.375h-19.375zM3.75 11.25h-0.625v-7.5h-2.5v13.125h3.125v-5.625zM7.5 11.25h-0.625v-7.5h-1.875v7.5h-0.625v5.625h3.125v-5.625zM11.25 11.25h-0.625v-7.5h-1.875v7.5h-0.625v5.625h3.125v-5.625zM12.5 3.75v7.5h-0.625v5.625h3.125v-5.625h-0.625v-7.5h-1.875zM18.75 3.75h-2.5v7.5h-0.625v5.625h3.125v-13.125z"></path>
</svg>

<svg version="1.1" xmlns="http://www.w3.org/2000/svg" width="20" height="20" viewBox="0 0 20 20"><path d="M0 17.5V3.125h19.375V17.5H0zm3.75-6.25h-.625v-7.5h-2.5v13.125H3.75V11.25zm3.75 0h-.625v-7.5H5v7.5h-.625v5.625H7.5V11.25zm3.75 0h-.625v-7.5H8.75v7.5h-.625v5.625h3.125V11.25zm1.25-7.5v7.5h-.625v5.625H15V11.25h-.625v-7.5H12.5zm6.25 0h-2.5v7.5h-.625v5.625h3.125V3.75z"/></svg>
